X: 20433
Q: "Slow with feeling."
M: 6/8
L: 1/8
K: D
[|\
z2z d2f | (af)d B2d | A2F (A>B)c | d2e fed |\
d3 d/e/f2 | e/c/A2 d/B/G2 | A/F/D2 (ceg) | (fd)B A2c |\
d2z2z2 |]


